src/svg/side/side_10.svg

<?xml version="1.0" encoding="UTF-8" standalone="no"?>
<!-- Generator: Adobe Illustrator 22.0.1, SVG Export Plug-In . SVG Version: 6.00 Build 0)  -->

<svg
   xmlns:dc="http://purl.org/dc/elements/1.1/"
   xmlns:cc="http://creativecommons.org/ns#"
   xmlns:rdf="http://www.w3.org/1999/02/22-rdf-syntax-ns#"
   xmlns:svg="http://www.w3.org/2000/svg"
   xmlns="http://www.w3.org/2000/svg"
   xmlns:sodipodi="http://sodipodi.sourceforge.net/DTD/sodipodi-0.dtd"
   xmlns:inkscape="http://www.inkscape.org/namespaces/inkscape"
   version="1.1"
   id="Layer_1"
   x="0px"
   y="0px"
   viewBox="0 0 160 160"
   style="enable-background:new 0 0 160 160;"
   xml:space="preserve"
   sodipodi:docname="side_10.svg"
   inkscape:version="0.92.2 (5c3e80d, 2017-08-06)"><metadata
     id="metadata23"><rdf:RDF><cc:Work
         rdf:about=""><dc:format>image/svg+xml</dc:format><dc:type
           rdf:resource="http://purl.org/dc/dcmitype/StillImage" /></cc:Work></rdf:RDF></metadata><defs
     id="defs21" /><sodipodi:namedview
     pagecolor="#ffffff"
     bordercolor="#666666"
     borderopacity="1"
     objecttolerance="10"
     gridtolerance="10"
     guidetolerance="10"
     inkscape:pageopacity="0"
     inkscape:pageshadow="2"
     inkscape:window-width="1920"
     inkscape:window-height="976"
     id="namedview19"
     showgrid="false"
     inkscape:zoom="5.9"
     inkscape:cx="34.899283"
     inkscape:cy="98.770783"
     inkscape:window-x="0"
     inkscape:window-y="27"
     inkscape:window-maximized="1"
     inkscape:current-layer="Layer_1" /><style
     type="text/css"
     id="style2">
	.st0{fill:#DD8313;}
	.st1{opacity:0.5;fill:#754C24;enable-background:new    ;}
	.st2{fill:#FFFFFF;}
</style><title
     id="title4">Artboard 42 copy 202</title><path
     class="st0"
     d="M63.3,76.1c0,0,0.8,14.1-17.6,21.1s-27.8-5.5-27.8-5.5s-0.5-15,18.4-21S63.3,76.1,63.3,76.1z"
     id="path6" /><path
     class="st1"
     d="M63.3,76.1c0,0,0.8,14.1-17.6,21.1s-27.8-5.5-27.8-5.5C38.8,93.8,52.3,87.9,63.3,76.1z"
     id="path8" /><path
     d="M 46.806641 77.5625 C 46.744141 77.5625 46.674609 77.574609 46.599609 77.599609 L 46.199219 77.699219 C 45.999219 77.799219 45.900391 78.100781 45.900391 78.300781 L 47.240234 81.964844 L 42.205078 83.837891 L 40.300781 78.699219 C 40.200781 78.399219 39.999219 78.300391 39.699219 78.400391 L 39.300781 78.5 C 39.100781 78.6 38.9 78.899219 39 79.199219 L 40.9375 84.308594 L 35.244141 86.425781 L 34.099609 83.300781 C 33.999609 83.000781 33.8 82.9 33.5 83 L 33.099609 83.099609 C 32.799609 83.199609 32.700781 83.499219 32.800781 83.699219 L 33.970703 86.900391 L 29.400391 88.599609 C 29.100391 88.699609 28.999609 88.899219 29.099609 89.199219 L 29.199219 89.599609 C 29.299219 89.799609 29.600781 89.900391 29.800781 89.900391 L 34.4375 88.175781 L 35.800781 91.900391 C 35.900781 92.200391 36.100391 92.299219 36.400391 92.199219 L 36.800781 92.099609 C 37.100781 91.999609 37.199609 91.8 37.099609 91.5 L 35.710938 87.703125 L 41.419922 85.580078 L 43.400391 90.800781 C 43.500391 91.100781 43.7 91.199609 44 91.099609 L 44.300781 90.900391 C 44.600781 90.800391 44.699609 90.600781 44.599609 90.300781 L 42.677734 85.111328 L 47.707031 83.240234 L 48.900391 86.5 C 49.000391 86.8 49.2 86.900781 49.5 86.800781 L 49.900391 86.699219 C 50.200391 86.599219 50.299219 86.399609 50.199219 86.099609 L 48.980469 82.767578 L 54 80.900391 C 54.3 80.800391 54.400781 80.600781 54.300781 80.300781 L 54.199219 79.900391 C 54.099219 79.600391 53.899609 79.499609 53.599609 79.599609 L 48.513672 81.492188 L 47.199219 77.900391 C 47.124219 77.675391 46.994141 77.5625 46.806641 77.5625 z "
     id="path10" /></svg>

<svg xmlns="http://www.w3.org/2000/svg" viewBox="0 0 160 160">
  <path d="M63.3 76.1s.8 14.1-17.6 21.1-27.8-5.5-27.8-5.5-.5-15 18.4-21 27 5.4 27 5.4z" fill="#dd8313"/>
  <path d="M63.3 76.1s.8 14.1-17.6 21.1-27.8-5.5-27.8-5.5c20.9 2.1 34.4-3.8 45.4-15.6z" opacity=".5" fill="#754c24"/>
  <path d="M46.8 77.6h-.2l-.4.1c-.2.1-.3.4-.3.6l1.3 3.7-5 1.8-1.9-5.1c-.1-.3-.3-.4-.6-.3l-.4.1c-.2.1-.4.4-.3.7l2 5.1-5.8 2.1-1.1-3.1c-.1-.3-.3-.4-.6-.3l-.4.1c-.3.1-.4.4-.3.6l1.2 3.2-4.6 1.7c-.3.1-.4.3-.3.6l.1.4c.1.2.4.3.6.3l4.6-1.7 1.4 3.7c.1.3.3.4.6.3l.4-.1c.3-.1.4-.3.3-.6l-1.4-3.8 5.7-2.1 2 5.2c.1.3.3.4.6.3l.3-.2c.3-.1.4-.3.3-.6l-2-5.2 5.1-1.9 1.2 3.3c.1.3.3.4.6.3l.4-.1c.3-.1.4-.3.3-.6L49 82.8l5-1.9c.3-.1.4-.3.3-.6l-.1-.4c-.1-.3-.3-.4-.6-.3l-5 1.9-1.4-3.6c0-.2-.2-.3-.4-.3z"/>
</svg>
